assets/rider.svg

<svg version="1.1" xmlns="http://www.w3.org/2000/svg" x="0" y="0" width="70" height="70" viewBox="0 0 70 70" xml:space="preserve"><defs><linearGradient id="a" x1="70.226" y1="27.799" x2="-5.13" y2="63.122" gradientTransform="matrix(1 0 0 -1 0 71.28)" gradientUnits="userSpaceOnUse"><stop offset="0" stop-color="#c90f5e"/><stop offset=".221" stop-color="#c90f5e"/><stop offset=".236" stop-color="#c90f5e"/><stop offset=".356" stop-color="#ca135c"/><stop offset=".466" stop-color="#ce1e57"/><stop offset=".574" stop-color="#d4314e"/><stop offset=".678" stop-color="#dc4b41"/><stop offset=".782" stop-color="#e66d31"/><stop offset=".883" stop-color="#f3961d"/><stop offset=".942" stop-color="#fcb20f"/></linearGradient><linearGradient id="b" x1="24.659" y1="61.996" x2="46.048" y2="2.934" gradientTransform="matrix(1 0 0 -1 0 71.28)" gradientUnits="userSpaceOnUse"><stop offset=".042" stop-color="#077cfb"/><stop offset=".445" stop-color="#c90f5e"/><stop offset=".958" stop-color="#077cfb"/></linearGradient><linearGradient id="c" x1="17.396" y1="63.346" x2="33.194" y2="7.201" gradientTransform="matrix(1 0 0 -1 0 71.28)" gradientUnits="userSpaceOnUse"><stop offset=".277" stop-color="#c90f5e"/><stop offset=".974" stop-color="#fcb20f"/></linearGradient></defs><title>rider</title><path fill="url(#a)" d="M70 27.237L63.391 23.75 20.926 0 3.827 17.921 21.619 41.068 60.537 44.397 70 27.237z"/><path fill="url(#b)" d="M50.423 16.132L44.271 1.107 27.643 17.471 11.768 50.194 49.411 70 70 57.98 50.423 16.132z"/><path fill="url(#c)" d="M20.926 0L0 14.095 7.779 62.172 27.848 69.889 53.78 48.823 20.926 0z"/><g><path d="M13.302 13.193H56.916V56.806999999999995H13.302z"/><g fill="#fff"><path d="M17.22741,18.86293h8.39564a7.38416,7.38416,0,0,1,5.34268,1.85358,5.86989,5.86989,0,0,1,1.52648,4.1433h0A5.74339,5.74339,0,0,1,28.567,30.5296l4.47041,6.54206H28.34891L24.42368,31.1838h-3.162v5.88785H17.22741V18.86293h0ZM25.296,27.69471c1.96262,0,3.053-1.09034,3.053-2.61682h0c0-1.74455-1.19938-2.61682-3.162-2.61682H21.15265v5.23365H25.296Z"/><path d="M36.09034,18.86293H43.2866c5.77882,0,9.70405,3.92523,9.70405,9.15888h0c0,5.12461-3.92523,9.15888-9.70405,9.15888H36.09034V18.86293Zm4.03427,3.59813V33.47352h3.162a5.23727,5.23727,0,0,0,5.56075-5.45171h0a5.26493,5.26493,0,0,0-5.56075-5.56075h-3.162Z"/></g><path fill="#fff" d="M17.227 48.629H33.582V51.355H17.227z"/></g></svg>

<?xml version="1.0" encoding="utf-8"?>
<!-- Generator: Adobe Illustrator 22.1.0, SVG Export Plug-In . SVG Version: 6.00 Build 0)  -->
<svg version="1.1" id="Layer_1" xmlns="http://www.w3.org/2000/svg" xmlns:xlink="http://www.w3.org/1999/xlink" x="0px" y="0px"
	 viewBox="0 0 70 70" style="enable-background:new 0 0 70 70;" xml:space="preserve">
<style type="text/css">
	.st0{fill:#FFFFFF;}
</style>
<title>rider</title>
<g>
	<path d="M13.3,13.2h43.6v43.6H13.3V13.2z"/>
	<g>
		<path class="st0" d="M17.2,18.9h8.4c2-0.1,3.9,0.6,5.3,1.9c1,1.1,1.6,2.6,1.5,4.1l0,0c0.1,2.6-1.5,4.9-3.9,5.7l4.5,6.5h-4.7
			l-3.9-5.9h-3.2v5.9h-4V18.9L17.2,18.9z M25.3,27.7c2,0,3.1-1.1,3.1-2.6l0,0c0-1.7-1.2-2.6-3.2-2.6h-4v5.2L25.3,27.7L25.3,27.7z"/>
		<path class="st0" d="M36.1,18.9h7.2c5.8,0,9.7,3.9,9.7,9.2l0,0c0,5.1-3.9,9.2-9.7,9.2h-7.2V18.9z M40.1,22.5v11h3.2
			c2.9,0.2,5.4-2,5.6-4.9c0-0.2,0-0.4,0-0.6l0,0c0.2-2.9-2-5.4-5-5.6c-0.2,0-0.4,0-0.6,0H40.1z"/>
	</g>
	<path class="st0" d="M17.2,48.6h16.4v2.7H17.2V48.6z"/>
</g>
</svg>
